src/assets/SendFilled.svg

<svg fill="none" height="15" viewBox="0 0 16 15" width="16" xmlns="http://www.w3.org/2000/svg"><path d="m7.02658.581423c.19283-.358107.56671-.581423.97343-.581423s.7806.223316.97343.581423l6.68696 12.418577c.1429.2655.113.5908-.0761.8258-.189.2349-.5004.3338-.7903.2509l-4.0794-1.1655c-.77079-.2202-1.33563-.8795-1.43507-1.675l-.7175-5.74006c-.03543-.28344-.27638-.49614-.56202-.49614-.28565 0-.52659.2127-.56202.49614l-.71751 5.74006c-.09944.7955-.66428 1.4548-1.43511 1.675l-4.07932 1.1655c-.289953.0829-.60132-.016-.790365-.2509-.189045-.235-.218998-.5603-.076033-.8258z" fill="#585f5f"/></svg>

<svg width="16" height="15" viewBox="0 0 16 15" fill="none"
	xmlns="http://www.w3.org/2000/svg">
	<path d="M7.02658 0.581423C7.21941 0.223316 7.59329 0 8.00001 0C8.40673 0 8.78061 0.223316 8.97344 0.581423L15.6604 13C15.8033 13.2655 15.7734 13.5908 15.5843 13.8258C15.3953 14.0607 15.0839 14.1596 14.794 14.0767L10.7146 12.9112C9.94381 12.691 9.37897 12.0317 9.27953 11.2362L8.56203 5.49614C8.5266 5.2127 8.28565 5 8.00001 5C7.71436 5 7.47342 5.2127 7.43799 5.49614L6.72048 11.2362C6.62104 12.0317 6.0562 12.691 5.28537 12.9112L1.20605 14.0767C0.916097 14.1596 0.60473 14.0607 0.415685 13.8258C0.22664 13.5908 0.196687 13.2655 0.339652 13L7.02658 0.581423Z" fill="#585F5F"/>
</svg>
